img/main/icon-01.svg

<svg width="182" height="143" viewBox="0 0 182 143" fill="none" xmlns="http://www.w3.org/2000/svg">
<path d="M152.553 119.262H26.2622C21.7455 119.262 18.0571 115.577 18.0571 111.044V26.4382C18.0571 21.9054 21.7257 18.22 26.2622 18.22H120.088C120.817 18.22 121.389 18.8112 121.389 19.5207C121.389 20.2499 120.798 20.8214 120.088 20.8214H26.2622C23.1853 20.8214 20.6804 23.3243 20.6804 26.4185V111.024C20.6804 114.099 23.1853 116.622 26.2622 116.622H152.553C155.63 116.622 158.154 114.119 158.154 111.024V94.3516C158.154 93.6224 158.746 93.0509 159.456 93.0509C160.186 93.0509 160.758 93.6421 160.758 94.3516V111.044C160.758 115.577 157.069 119.262 152.553 119.262Z" fill="#FAFAFA"/>
<path d="M157.661 103.397H21.5283C20.7985 103.397 20.2266 102.806 20.2266 102.096C20.2266 101.367 20.8183 100.796 21.5283 100.796H157.661C158.391 100.796 158.963 101.387 158.963 102.096C158.963 102.806 158.391 103.397 157.661 103.397Z" fill="#FAFAFA"/>
<path d="M149.634 111.714C148.904 111.714 148.233 111.123 148.233 110.413C148.233 109.684 148.726 109.113 149.456 109.113H149.634C150.364 109.113 150.936 109.704 150.936 110.413C150.936 111.123 150.344 111.714 149.634 111.714Z" fill="#F8C244"/>
<path d="M139.357 111.714C138.628 111.714 137.957 111.123 137.957 110.413C137.957 109.684 138.45 109.113 139.18 109.113H139.357C140.087 109.113 140.659 109.704 140.659 110.413C140.659 111.123 140.067 111.714 139.357 111.714Z" fill="#F8C244"/>
<path d="M129.082 111.714C128.352 111.714 127.681 111.123 127.681 110.413C127.681 109.684 128.174 109.113 128.904 109.113H129.082C129.811 109.113 130.383 109.704 130.383 110.413C130.383 111.123 129.811 111.714 129.082 111.714Z" fill="#F8C244"/>
<path d="M120.956 133.531L112.198 130.22C108.234 128.722 105.67 124.721 105.985 120.484L106.242 117.055H103.619L103.382 120.307C102.987 125.687 106.242 130.772 111.291 132.683L120.048 135.994C120.975 136.349 121.607 137.256 121.607 138.241V140.291H57.2285V138.241C57.2285 137.256 57.8597 136.349 58.7867 135.994L67.544 132.683C72.5932 130.772 75.8476 125.687 75.4532 120.307L75.2165 117.055H72.5932L72.8496 120.484C73.1652 124.721 70.6012 128.722 66.6367 130.22L57.8794 133.531C55.9268 134.26 54.625 136.152 54.625 138.221V141.572C54.625 142.301 55.2167 142.872 55.9268 142.872H122.908C123.638 142.872 124.21 142.281 124.21 141.572V138.221C124.21 136.152 122.908 134.26 120.956 133.531Z" fill="#FAFAFA"/>
<path d="M56.3013 92.8343C55.5715 92.8343 54.9995 92.2431 54.9995 91.5336V81.1475C54.9995 80.4183 55.5912 79.8468 56.3013 79.8468C57.0311 79.8468 57.603 80.438 57.603 81.1475V91.5139C57.6228 92.2628 57.0311 92.8343 56.3013 92.8343Z" fill="#FAFAFA"/>
<path d="M51.8243 90.2536C51.3706 90.2536 50.9367 90.0172 50.6803 89.6033C50.3253 88.9726 50.5422 88.1843 51.1536 87.8099L60.1476 82.6267C60.7788 82.2719 61.5677 82.4887 61.9425 83.0997C62.2975 83.7303 62.0806 84.5186 61.4691 84.8931L52.4751 90.0763C52.2582 90.1945 52.0412 90.2536 51.8243 90.2536Z" fill="#FAFAFA"/>
<path d="M60.7984 90.252C60.5815 90.252 60.3448 90.1929 60.1475 90.0746L51.1535 84.8914C50.5224 84.5367 50.3054 83.7287 50.6802 83.098C51.0352 82.4674 51.8439 82.2506 52.475 82.625L61.469 87.8082C62.1002 88.163 62.3171 88.971 61.9424 89.6016C61.7057 90.0155 61.2521 90.252 60.7984 90.252Z" fill="#FAFAFA"/>
<path d="M73.0073 92.8347C72.2775 92.8347 71.7056 92.2434 71.7056 91.534V81.1479C71.7056 80.4187 72.2973 79.8472 73.0073 79.8472C73.7371 79.8472 74.3091 80.4384 74.3091 81.1479V91.5142C74.3288 92.2631 73.7371 92.8347 73.0073 92.8347Z" fill="#FAFAFA"/>
<path d="M68.5103 90.254C68.0566 90.254 67.6227 90.0175 67.3663 89.6037C67.0113 88.973 67.2282 88.1847 67.8397 87.8102L76.8337 82.627C77.4648 82.2723 78.2538 82.4891 78.6285 83.1C78.9835 83.7307 78.7666 84.519 78.1551 84.8935L69.1612 90.0766C68.9639 90.1949 68.747 90.254 68.5103 90.254Z" fill="#FAFAFA"/>
<path d="M77.5045 90.2524C77.2875 90.2524 77.0508 90.1932 76.8536 90.075L67.8596 84.8918C67.2284 84.5371 67.0115 83.7291 67.3862 83.0984C67.7413 82.4677 68.5499 82.251 69.1811 82.6254L78.1751 87.8086C78.8062 88.1633 79.0232 88.9714 78.6484 89.602C78.4118 90.0159 77.9581 90.2524 77.5045 90.2524Z" fill="#FAFAFA"/>
<path d="M89.7134 92.8347C88.9836 92.8347 88.4116 92.2434 88.4116 91.534V81.1479C88.4116 80.4187 89.0033 79.8472 89.7134 79.8472C90.4432 79.8472 91.0152 80.4384 91.0152 81.1479V91.5142C91.0349 92.2631 90.4432 92.8347 89.7134 92.8347Z" fill="#FAFAFA"/>
<path d="M85.2163 90.254C84.7627 90.254 84.3288 90.0175 84.0724 89.6037C83.7173 88.973 83.9343 88.1847 84.5457 87.8102L93.5398 82.627C94.1709 82.2723 94.9599 82.4891 95.3346 83.1C95.6896 83.7307 95.4727 84.519 94.8612 84.8935L85.8672 90.0766C85.67 90.1949 85.453 90.254 85.2163 90.254Z" fill="#FAFAFA"/>
<path d="M94.2105 90.2524C93.9936 90.2524 93.7569 90.1932 93.5597 90.075L84.5657 84.8918C83.9345 84.5371 83.7175 83.7291 84.0923 83.0984C84.4473 82.4677 85.256 82.251 85.8872 82.6254L94.8812 87.8086C95.5123 88.1633 95.7293 88.9714 95.3545 89.602C95.0981 90.0159 94.6642 90.2524 94.2105 90.2524Z" fill="#FAFAFA"/>
<path d="M106.419 92.8347C105.69 92.8347 105.118 92.2434 105.118 91.534V81.1479C105.118 80.4187 105.709 79.8472 106.419 79.8472C107.13 79.8472 107.721 80.4384 107.721 81.1479V91.5142C107.741 92.2631 107.149 92.8347 106.419 92.8347Z" fill="#FAFAFA"/>
<path d="M101.922 90.2522C101.469 90.2522 101.035 90.0158 100.778 89.6019C100.423 88.9712 100.64 88.1829 101.252 87.8085L110.246 82.6253C110.877 82.2508 111.666 82.4873 112.041 83.0983C112.396 83.7289 112.179 84.5173 111.567 84.8917L102.573 90.0749C102.376 90.1931 102.139 90.2522 101.922 90.2522Z" fill="#FAFAFA"/>
<path d="M110.917 90.2524C110.7 90.2524 110.463 90.1932 110.266 90.075L101.272 84.8918C100.641 84.5371 100.424 83.7291 100.798 83.0984C101.153 82.4677 101.962 82.251 102.593 82.6254L111.587 87.8086C112.218 88.1633 112.435 88.9714 112.061 89.602C111.804 90.0159 111.37 90.2524 110.917 90.2524Z" fill="#FAFAFA"/>
<path d="M102.81 73.0875H76.0054C73.3821 73.0875 71.252 70.9591 71.252 68.3379V51.5271C71.252 48.9059 73.3821 46.7775 76.0054 46.7775H102.81C105.433 46.7775 107.563 48.9059 107.563 51.5271V68.3379C107.563 70.9591 105.433 73.0875 102.81 73.0875ZM76.0054 49.3789C74.8219 49.3789 73.8555 50.3446 73.8555 51.5271V68.3379C73.8555 69.5204 74.8219 70.4861 76.0054 70.4861H102.81C103.993 70.4861 104.96 69.5204 104.96 68.3379V51.5271C104.96 50.3446 103.993 49.3789 102.81 49.3789H76.0054Z" fill="#F8C244"/>
<path d="M100.975 49.3791C100.246 49.3791 99.6737 48.7878 99.6737 48.0784V42.501C99.6737 36.8843 95.1175 32.3317 89.4963 32.3317C83.875 32.3317 79.3188 36.904 79.3188 42.501V48.0784C79.3188 48.8075 78.7271 49.3791 78.0171 49.3791C77.2873 49.3791 76.7153 48.7878 76.7153 48.0784V42.501C76.7153 35.4456 82.4549 29.7106 89.516 29.7106C96.577 29.7106 102.317 35.4456 102.317 42.501V48.0784C102.277 48.7878 101.705 49.3791 100.975 49.3791Z" fill="#F8C244"/>
<path d="M89.3975 63.5097C88.6677 63.5097 88.0957 62.9185 88.0957 62.209V59.2725C88.0957 58.5433 88.6874 57.9718 89.3975 57.9718C90.1272 57.9718 90.6992 58.563 90.6992 59.2725V62.1893C90.719 62.9185 90.1272 63.5097 89.3975 63.5097Z" fill="#F8C244"/>
<path d="M120.087 77.6192C119.358 77.6192 118.786 77.028 118.786 76.3185V13.47C118.786 9.50871 122.02 6.27661 125.985 6.27661H164.111C168.075 6.27661 171.31 9.50871 171.31 13.47V28.3692C171.31 29.0984 170.718 29.6699 170.008 29.6699C169.298 29.6699 168.706 29.0786 168.706 28.3692V13.47C168.706 10.9474 166.655 8.89776 164.13 8.89776H125.985C123.46 8.89776 121.409 10.9474 121.409 13.47V76.3185C121.409 77.0477 120.817 77.6192 120.087 77.6192Z" fill="#FAFAFA"/>
<path d="M164.111 95.6524H125.985C122.02 95.6524 118.786 92.4203 118.786 88.459V74.1117C118.786 73.3825 119.377 72.8109 120.087 72.8109C120.817 72.8109 121.389 73.4022 121.389 74.1117V88.459C121.389 90.9816 123.44 93.0312 125.965 93.0312H164.111C166.635 93.0312 168.687 90.9816 168.687 88.459V69.9139C168.687 69.1847 169.278 68.6132 169.988 68.6132C170.698 68.6132 171.29 69.2044 171.29 69.9139V88.4787C171.31 92.44 168.075 95.6524 164.111 95.6524Z" fill="#FAFAFA"/>
<path d="M149.85 14.5924H140.245C138.766 14.5924 137.464 13.6464 136.991 12.2472L135.63 8.24645C135.393 7.55668 135.768 6.82748 136.458 6.59099C137.148 6.35449 137.878 6.72894 138.115 7.41872L139.476 11.4194C139.594 11.7545 139.91 11.9712 140.265 11.9712H149.87C150.225 11.9712 150.541 11.7545 150.659 11.4194L152.02 7.41872C152.257 6.72894 152.986 6.3742 153.677 6.59099C154.367 6.82748 154.722 7.57638 154.505 8.24645L153.144 12.2472C152.631 13.6464 151.33 14.5924 149.85 14.5924Z" fill="#FAFAFA"/>
<path d="M130.482 77.5992C130.265 77.5992 130.048 77.5401 129.851 77.4416C129.437 77.2051 129.18 76.7715 129.18 76.2985V48.8848C129.18 34.3404 141.034 22.496 155.59 22.496C170.146 22.496 182 34.3207 182 48.8848C182 63.449 170.146 75.2737 155.59 75.2737C150.482 75.2737 145.571 73.8153 141.31 71.0759L131.172 77.4022C130.955 77.5401 130.719 77.5992 130.482 77.5992ZM155.57 25.1171C142.454 25.1171 131.784 35.7791 131.784 48.8848V73.9336L140.6 68.3956C141.034 68.1197 141.606 68.1395 142.04 68.4351C146.024 71.1942 150.699 72.6526 155.551 72.6526C168.667 72.6526 179.337 61.9906 179.337 48.8848C179.337 35.7791 168.687 25.1171 155.57 25.1171Z" fill="#FAFAFA"/>
<path d="M155.215 67.2523C155.038 67.2523 154.88 67.2129 154.702 67.1538L151.763 65.9319C151.27 65.7348 150.955 65.2619 150.955 64.7297V52.2546C147.503 50.5204 145.333 47.032 145.333 43.1299C145.333 37.4934 149.929 32.9015 155.57 32.9015C161.211 32.9015 165.807 37.4934 165.807 43.1299C165.807 47.0518 163.617 50.5401 160.185 52.2546V62.5619C160.185 62.9166 160.028 63.2713 159.771 63.5276L156.122 66.8976C155.846 67.1341 155.531 67.2523 155.215 67.2523ZM153.578 63.8429L154.939 64.4144L157.542 61.9903V51.4072C157.542 50.8751 157.878 50.3824 158.371 50.1853C161.29 49.0226 163.183 46.2634 163.183 43.1102C163.183 38.9124 159.771 35.5029 155.57 35.5029C151.369 35.5029 147.957 38.9124 147.957 43.1102C147.957 46.2437 149.83 49.0225 152.75 50.1656C153.243 50.3627 153.578 50.8554 153.578 51.3875V63.8429Z" fill="#F8C244"/>
<path d="M155.842 41.2336C156.756 41.0854 157.377 40.2249 157.229 39.3117C157.08 38.3984 156.219 37.7783 155.305 37.9265C154.391 38.0747 153.771 38.9351 153.919 39.8484C154.067 40.7616 154.928 41.3818 155.842 41.2336Z" fill="#F8C244"/>
<path d="M47.9188 9.56817C47.406 9.05577 47.406 8.22804 47.9188 7.71563L55.256 0.384304C55.7688 -0.128101 56.5972 -0.128101 57.11 0.384304C57.6228 0.896708 57.6228 1.72444 57.11 2.23684L49.7728 9.56817C49.26 10.0806 48.4119 10.0806 47.9188 9.56817Z" fill="#F8C244"/>
<path d="M47.9188 0.384304C48.4316 -0.128101 49.26 -0.128101 49.7728 0.384304L57.11 7.71563C57.6228 8.22804 57.6228 9.05577 57.11 9.56817C56.5972 10.0806 55.7688 10.0806 55.256 9.56817L47.9188 2.23684C47.406 1.72444 47.406 0.896708 47.9188 0.384304Z" fill="#F8C244"/>
<path d="M102.237 12.5652H93.9337C93.2236 12.5652 92.5925 13.117 92.5727 13.8265C92.553 14.5754 93.1447 15.1666 93.8745 15.1666H102.237C102.967 15.1666 103.539 14.5754 103.539 13.8659C103.559 13.1367 102.967 12.5652 102.237 12.5652Z" fill="#F8C244"/>
<path d="M108.174 12.5645H107.562C106.833 12.5645 106.261 13.1557 106.261 13.8652C106.261 14.5944 106.852 15.1659 107.562 15.1659H108.233C108.963 15.1659 109.574 14.5549 109.535 13.8258C109.515 13.1163 108.904 12.5645 108.174 12.5645Z" fill="#F8C244"/>
<path d="M34.1909 126.614H42.4946C43.2046 126.614 43.8358 126.062 43.8555 125.352C43.8752 124.604 43.2835 124.012 42.5538 124.012H34.1909C33.4611 124.012 32.8892 124.604 32.8892 125.313C32.8892 126.023 33.4611 126.614 34.1909 126.614Z" fill="#F8C244"/>
<path d="M28.2543 126.614H28.8658C29.5956 126.614 30.1675 126.023 30.1675 125.314C30.1675 124.585 29.5758 124.013 28.8658 124.013H28.1952C27.4654 124.013 26.854 124.624 26.8934 125.353C26.9131 126.063 27.5246 126.614 28.2543 126.614Z" fill="#F8C244"/>
<path d="M178.134 77.7183V86.0154C178.134 86.7248 178.687 87.3555 179.397 87.3752C180.146 87.3949 180.738 86.8037 180.738 86.0745V77.7183C180.738 76.9891 180.146 76.4176 179.436 76.4176C178.726 76.4176 178.134 77.0088 178.134 77.7183Z" fill="#F8C244"/>
<path d="M178.134 71.7862V72.3971C178.134 73.1263 178.726 73.6979 179.436 73.6979C180.166 73.6979 180.738 73.1066 180.738 72.3971V71.7271C180.738 70.9979 180.126 70.387 179.397 70.4264C178.687 70.4461 178.134 71.0767 178.134 71.7862Z" fill="#F8C244"/>
<path d="M10.0493 52.9459V61.2429C10.0493 61.9524 10.6016 62.583 11.3116 62.6027C12.0611 62.6224 12.6528 62.0312 12.6528 61.302V52.9459C12.6528 52.2167 12.0611 51.6451 11.3511 51.6451C10.641 51.6254 10.0493 52.2167 10.0493 52.9459Z" fill="#F8C244"/>
<path d="M10.0493 47.0141V47.6251C10.0493 48.3543 10.641 48.9258 11.3511 48.9258C12.0809 48.9258 12.6528 48.3345 12.6528 47.6251V46.955C12.6528 46.2258 12.0414 45.6149 11.3116 45.6543C10.6016 45.6543 10.0493 46.2849 10.0493 47.0141Z" fill="#F8C244"/>
<path d="M0.384611 36.4301C-0.128204 35.9177 -0.128204 35.09 0.384611 34.5776L7.72181 27.2462C8.23463 26.7338 9.06302 26.7338 9.57584 27.2462C10.0887 27.7586 10.0887 28.5864 9.57584 29.0988L2.23864 36.4301C1.72582 36.9425 0.897426 36.9425 0.384611 36.4301Z" fill="#F8C244"/>
<path d="M0.384611 27.2462C0.897426 26.7338 1.72582 26.7338 2.23864 27.2462L9.57584 34.5776C10.0887 35.09 10.0887 35.9177 9.57584 36.4301C9.06302 36.9425 8.23463 36.9425 7.72181 36.4301L0.384611 29.0988C-0.128204 28.5864 -0.128204 27.7586 0.384611 27.2462Z" fill="#F8C244"/>
<path d="M160.422 133.59C159.909 133.077 159.909 132.249 160.422 131.737L167.759 124.406C168.272 123.893 169.101 123.893 169.613 124.406C170.126 124.918 170.126 125.746 169.613 126.258L162.276 133.59C161.763 134.102 160.935 134.102 160.422 133.59Z" fill="#F8C244"/>
<path d="M160.422 124.406C160.935 123.893 161.763 123.893 162.276 124.406L169.613 131.737C170.126 132.249 170.126 133.077 169.613 133.59C169.101 134.102 168.272 134.102 167.759 133.59L160.422 126.258C159.909 125.746 159.909 124.918 160.422 124.406Z" fill="#F8C244"/>
</svg>

<svg width="182" height="143" fill="none" xmlns="http://www.w3.org/2000/svg"><path d="M152.553 119.262H26.263c-4.518 0-8.206-3.685-8.206-8.218V26.438c0-4.533 3.669-8.218 8.205-8.218h93.826a1.3 1.3 0 110 2.601H26.262c-3.077 0-5.582 2.503-5.582 5.598v84.605c0 3.075 2.505 5.598 5.582 5.598h126.291c3.077 0 5.601-2.503 5.601-5.598V94.352a1.3 1.3 0 011.302-1.301 1.3 1.3 0 011.302 1.3v16.693c0 4.533-3.689 8.218-8.205 8.218z" fill="#FAFAFA"/><path d="M157.661 103.397H21.528a1.3 1.3 0 110-2.601h136.133a1.3 1.3 0 110 2.601z" fill="#FAFAFA"/><path d="M149.634 111.714c-.73 0-1.401-.591-1.401-1.301 0-.729.493-1.3 1.223-1.3h.178a1.3 1.3 0 011.302 1.3c0 .71-.592 1.301-1.302 1.301zm-10.277 0c-.729 0-1.4-.591-1.4-1.301 0-.729.493-1.3 1.223-1.3h.177a1.3 1.3 0 011.302 1.3c0 .71-.592 1.301-1.302 1.301zm-10.275 0c-.73 0-1.401-.591-1.401-1.301 0-.729.493-1.3 1.223-1.3h.178a1.3 1.3 0 110 2.601z" fill="#F8C244"/><path d="M120.956 133.531l-8.758-3.311c-3.964-1.498-6.528-5.499-6.213-9.736l.257-3.429h-2.623l-.237 3.252c-.395 5.38 2.86 10.465 7.909 12.376l8.757 3.311a2.435 2.435 0 011.559 2.247v2.05H57.228v-2.05c0-.985.632-1.892 1.559-2.247l8.757-3.311c5.05-1.911 8.304-6.996 7.91-12.376l-.237-3.252h-2.624l.257 3.429c.315 4.237-2.249 8.238-6.213 9.736l-8.758 3.311a5.03 5.03 0 00-3.254 4.69v3.351a1.3 1.3 0 001.302 1.3h66.981a1.3 1.3 0 001.302-1.3v-3.351a5.031 5.031 0 00-3.254-4.69zM56.301 92.834a1.3 1.3 0 01-1.302-1.3V81.147a1.3 1.3 0 011.302-1.3 1.3 1.3 0 011.302 1.3v10.367c.02.749-.572 1.32-1.302 1.32z" fill="#FAFAFA"/><path d="M51.824 90.254a1.35 1.35 0 01-1.144-.65 1.334 1.334 0 01.474-1.794l8.994-5.183a1.337 1.337 0 011.794.473c.355.63.139 1.419-.473 1.793l-8.994 5.183a1.35 1.35 0 01-.65.178z" fill="#FAFAFA"/><path d="M60.798 90.252c-.217 0-.453-.06-.65-.177l-8.995-5.184a1.295 1.295 0 01-.473-1.793 1.297 1.297 0 011.795-.473l8.994 5.183c.631.355.848 1.163.473 1.794-.236.413-.69.65-1.144.65zm12.209 2.583a1.3 1.3 0 01-1.301-1.301V81.148c0-.73.591-1.3 1.301-1.3a1.3 1.3 0 011.302 1.3v10.366c.02.75-.572 1.32-1.302 1.32z" fill="#FAFAFA"/><path d="M68.51 90.254a1.35 1.35 0 01-1.144-.65 1.335 1.335 0 01.474-1.794l8.994-5.183a1.337 1.337 0 011.794.473c.356.63.139 1.419-.473 1.794l-8.994 5.183a1.242 1.242 0 01-.65.177z" fill="#FAFAFA"/><path d="M77.504 90.252c-.217 0-.453-.059-.65-.177l-8.994-5.183a1.295 1.295 0 01-.474-1.794 1.297 1.297 0 011.795-.473l8.994 5.184c.631.354.848 1.162.473 1.793-.236.414-.69.65-1.144.65zm12.209 2.583a1.3 1.3 0 01-1.301-1.301V81.148c0-.73.591-1.3 1.301-1.3a1.3 1.3 0 011.302 1.3v10.366c.02.75-.572 1.32-1.302 1.32z" fill="#FAFAFA"/><path d="M85.216 90.254a1.35 1.35 0 01-1.144-.65 1.335 1.335 0 01.474-1.794l8.994-5.183a1.337 1.337 0 011.795.473c.355.63.138 1.419-.474 1.794l-8.994 5.183a1.242 1.242 0 01-.65.177z" fill="#FAFAFA"/><path d="M94.21 90.252c-.216 0-.453-.059-.65-.177l-8.994-5.183a1.295 1.295 0 01-.474-1.794 1.297 1.297 0 011.795-.473l8.994 5.184c.631.354.848 1.162.474 1.793-.257.414-.69.65-1.145.65zm12.209 2.583a1.3 1.3 0 01-1.301-1.301V81.148c0-.73.591-1.3 1.301-1.3.711 0 1.302.59 1.302 1.3v10.366c.02.75-.572 1.32-1.302 1.32z" fill="#FAFAFA"/><path d="M101.922 90.252a1.35 1.35 0 01-1.144-.65 1.334 1.334 0 01.474-1.794l8.994-5.183c.631-.374 1.42-.138 1.795.473.355.63.138 1.42-.474 1.794l-8.994 5.183a1.294 1.294 0 01-.651.177z" fill="#FAFAFA"/><path d="M110.917 90.252c-.217 0-.454-.059-.651-.177l-8.994-5.183a1.296 1.296 0 01-.474-1.794 1.297 1.297 0 011.795-.473l8.994 5.184c.631.354.848 1.162.474 1.793a1.35 1.35 0 01-1.144.65z" fill="#FAFAFA"/><path d="M102.81 73.088H76.005a4.754 4.754 0 01-4.753-4.75v-16.81c0-2.622 2.13-4.75 4.753-4.75h26.805a4.754 4.754 0 014.753 4.75v16.81c0 2.621-2.13 4.75-4.753 4.75zm-26.805-23.71c-1.183 0-2.15.967-2.15 2.15v16.81c0 1.182.967 2.148 2.15 2.148h26.805c1.183 0 2.15-.966 2.15-2.148v-16.81a2.154 2.154 0 00-2.15-2.15H76.005z" fill="#F8C244"/><path d="M100.975 49.38a1.3 1.3 0 01-1.301-1.302v-5.577c0-5.617-4.556-10.17-10.178-10.17-5.621 0-10.177 4.573-10.177 10.17v5.577a1.3 1.3 0 01-1.302 1.301 1.3 1.3 0 01-1.302-1.3V42.5c0-7.055 5.74-12.79 12.801-12.79s12.801 5.735 12.801 12.79v5.577c-.04.71-.612 1.301-1.342 1.301zM89.397 63.51a1.3 1.3 0 01-1.301-1.301v-2.937c0-.729.591-1.3 1.301-1.3a1.3 1.3 0 011.302 1.3v2.917c.02.73-.572 1.32-1.302 1.32z" fill="#F8C244"/><path d="M120.087 77.62a1.3 1.3 0 01-1.301-1.302V13.47c0-3.961 3.234-7.193 7.199-7.193h38.126c3.964 0 7.199 3.232 7.199 7.193v14.9a1.3 1.3 0 01-1.302 1.3c-.71 0-1.302-.591-1.302-1.3v-14.9a4.577 4.577 0 00-4.576-4.572h-38.145a4.577 4.577 0 00-4.576 4.572v62.849c0 .729-.592 1.3-1.322 1.3z" fill="#FAFAFA"/><path d="M164.111 95.652h-38.126c-3.965 0-7.199-3.232-7.199-7.193V74.112a1.3 1.3 0 011.301-1.301 1.3 1.3 0 011.302 1.3V88.46a4.577 4.577 0 004.576 4.572h38.146a4.578 4.578 0 004.576-4.572V69.914c0-.73.591-1.3 1.301-1.3s1.302.59 1.302 1.3v18.565c.02 3.961-3.215 7.173-7.179 7.173zm-14.261-81.06h-9.605a3.435 3.435 0 01-3.254-2.345l-1.361-4a1.3 1.3 0 01.828-1.656c.69-.237 1.42.138 1.657.828l1.361 4a.83.83 0 00.789.552h9.605a.83.83 0 00.789-.552l1.361-4a1.318 1.318 0 011.657-.828c.69.236 1.045.985.828 1.655l-1.361 4.001c-.513 1.4-1.814 2.345-3.294 2.345z" fill="#FAFAFA"/><path d="M130.482 77.6a1.43 1.43 0 01-.631-.158 1.318 1.318 0 01-.671-1.143V48.885c0-14.545 11.854-26.389 26.41-26.389 14.556 0 26.41 11.825 26.41 26.389s-11.854 26.389-26.41 26.389a26.294 26.294 0 01-14.28-4.198l-10.138 6.326a1.268 1.268 0 01-.69.197zm25.088-52.483c-13.116 0-23.786 10.662-23.786 23.768v25.049l8.816-5.538a1.318 1.318 0 011.44.04 23.63 23.63 0 0013.511 4.217c13.116 0 23.786-10.662 23.786-23.768s-10.65-23.768-23.767-23.768z" fill="#FAFAFA"/><path d="M155.215 67.252c-.177 0-.335-.04-.513-.098l-2.939-1.222a1.285 1.285 0 01-.808-1.202V52.255a10.158 10.158 0 01-5.622-9.125c0-5.637 4.596-10.229 10.237-10.229s10.237 4.592 10.237 10.229c0 3.922-2.19 7.41-5.622 9.125v10.307c0 .355-.157.71-.414.966l-3.649 3.37a1.389 1.389 0 01-.907.354zm-1.637-3.41l1.361.572 2.603-2.424V51.407c0-.532.336-1.025.829-1.222 2.919-1.162 4.812-3.922 4.812-7.075 0-4.198-3.412-7.607-7.613-7.607-4.201 0-7.613 3.41-7.613 7.607 0 3.134 1.873 5.913 4.793 7.056.493.197.828.69.828 1.222v12.455z" fill="#F8C244"/><path d="M155.842 41.234a1.676 1.676 0 10-.535-3.31 1.676 1.676 0 00.535 3.31zM47.919 9.568a1.308 1.308 0 010-1.852L55.256.384a1.31 1.31 0 111.854 1.853l-7.337 7.331c-.513.513-1.361.513-1.854 0z" fill="#F8C244"/><path d="M47.919.384a1.31 1.31 0 011.854 0l7.337 7.332a1.31 1.31 0 11-1.854 1.853l-7.337-7.332a1.308 1.308 0 010-1.853zm54.318 12.181h-8.303c-.71 0-1.341.552-1.361 1.261-.02.75.572 1.34 1.302 1.34h8.362a1.3 1.3 0 001.302-1.3c.02-.73-.572-1.3-1.302-1.3zm5.937 0h-.612a1.3 1.3 0 100 2.6h.671c.73 0 1.341-.61 1.302-1.34-.02-.709-.631-1.26-1.361-1.26zM34.19 126.614h8.305c.71 0 1.34-.552 1.36-1.262a1.297 1.297 0 00-1.301-1.34H34.19a1.3 1.3 0 100 2.602zm-5.936 0h.612a1.3 1.3 0 100-2.601h-.67c-.73 0-1.342.611-1.303 1.34.02.71.632 1.261 1.361 1.261zm149.88-48.896v8.297c0 .71.553 1.34 1.263 1.36a1.297 1.297 0 001.341-1.3v-8.357a1.3 1.3 0 00-1.302-1.3c-.71 0-1.302.59-1.302 1.3zm0-5.932v.611c0 .73.592 1.3 1.302 1.3a1.3 1.3 0 001.302-1.3v-.67c0-.73-.612-1.34-1.341-1.3-.71.02-1.263.65-1.263 1.36zM10.05 52.946v8.297c0 .71.552 1.34 1.262 1.36.75.02 1.34-.572 1.34-1.301v-8.356a1.3 1.3 0 00-1.3-1.3c-.711-.02-1.303.57-1.303 1.3zm0-5.932v.611c0 .73.591 1.3 1.301 1.3a1.3 1.3 0 001.302-1.3v-.67c0-.73-.612-1.34-1.341-1.3-.71 0-1.263.63-1.263 1.36zM.385 36.43a1.308 1.308 0 010-1.852l7.337-7.332A1.31 1.31 0 119.576 29.1l-7.337 7.33a1.31 1.31 0 01-1.854 0z" fill="#F8C244"/><path d="M.385 27.246a1.31 1.31 0 011.854 0l7.337 7.332a1.31 1.31 0 11-1.854 1.853L.385 29.098a1.308 1.308 0 010-1.853zM160.422 133.59a1.308 1.308 0 010-1.853l7.337-7.331a1.31 1.31 0 011.854 0c.513.512.513 1.34 0 1.852l-7.337 7.332a1.31 1.31 0 01-1.854 0z" fill="#F8C244"/><path d="M160.422 124.406a1.31 1.31 0 011.854 0l7.337 7.331a1.31 1.31 0 01-1.854 1.853l-7.337-7.332a1.307 1.307 0 010-1.852z" fill="#F8C244"/></svg>
